;FLAVOR:UltiGCode
;TIME:1634      
;MATERIAL:3967      
;MATERIAL2:0         

;Layer count: 70
;LAYER:0
M107
G0 F9000 X93.33 Y90.83 Z0.30
G0 X93.33 Y90.83
;TYPE:SKIRT
G11
G1 F1200 X93.72 Y90.53 E0.05830
G1 X95.14 Y89.44 E0.27301
G1 X95.59 Y89.25 E0.33120
G1 X97.25 Y88.57 E0.54587
G1 X97.75 Y88.50 E0.60583
G1 X97.75 Y88.51 E0.60595
G1 X99.29 Y88.30 E0.79227
G1 X130.70 Y88.30 E4.55241
G1 X130.98 Y88.34 E4.58619
G1 X132.75 Y88.57 E4.80003
G1 X133.21 Y88.76 E4.85887
G1 X134.86 Y89.44 E5.07343
G1 X135.25 Y89.74 E5.13216
G1 X136.67 Y90.83 E5.34593
G1 X137.75 Y92.24 E5.55858
G1 X138.06 Y92.63 E5.61832
G1 X138.74 Y94.28 E5.83112
G1 X138.74 Y94.28 E5.83124
G1 X138.93 Y94.74 E5.89112
G1 X139.16 Y96.49 E6.10240
G1 X139.22 Y96.90 E6.15207
G1 X139.16 Y97.63 E6.23922
G1 X139.14 Y97.84 E6.26501
G1 X139.04 Y98.33 E6.32496
G1 X138.99 Y98.53 E6.35019
G1 X138.82 Y99.03 E6.41273
G1 X138.75 Y99.23 E6.43830
G1 X138.54 Y99.67 E6.49634
G1 X138.45 Y99.86 E6.52171
G1 X138.21 Y100.23 E6.57374
G1 X138.10 Y100.41 E6.59994
G1 X137.74 Y100.86 E6.66926
G1 X137.58 Y101.05 E6.69873
G1 X137.44 Y101.18 E6.72152
G1 X137.11 Y101.49 E6.77511
G1 X136.94 Y101.62 E6.80097
G1 X136.51 Y101.94 E6.86537
G1 X136.33 Y102.05 E6.89073
G1 X135.86 Y102.32 E6.95470
G1 X135.68 Y102.39 E6.97817
G1 X135.17 Y102.60 E7.04420
G1 X134.97 Y102.65 E7.06926
G1 X134.44 Y102.81 E7.13578
G1 X116.26 Y104.61 E9.32222
G1 X115.41 Y104.69 E9.42483
G1 X114.34 Y104.86 E9.55434
G1 X113.43 Y105.12 E9.66755
G1 X112.53 Y105.50 E9.78416
G1 X111.70 Y105.99 E9.89952
G1 X110.94 Y106.56 E10.01326
G1 X110.25 Y107.23 E10.12915
G1 X109.64 Y107.98 E10.24400
G1 X109.14 Y108.80 E10.35936
G1 X108.73 Y109.68 E10.47478
G1 X108.44 Y110.60 E10.59055
G1 X108.27 Y111.55 E10.70596
G1 X108.21 Y112.51 E10.82145
G1 X108.26 Y113.46 E10.93586
G1 X108.44 Y114.40 E11.05045
G1 X108.73 Y115.33 E11.16625
G1 X109.14 Y116.20 E11.28156
G1 X109.64 Y117.02 E11.39670
G1 X110.25 Y117.77 E11.51232
G1 X110.93 Y118.43 E11.62609
G1 X111.70 Y119.02 E11.74179
G1 X112.54 Y119.50 E11.85796
G1 X113.42 Y119.88 E11.97214
G1 X114.35 Y120.14 E12.08778
G1 X115.41 Y120.31 E12.21672
G1 X133.21 Y122.07 E14.35720
G1 X134.38 Y122.19 E14.49866
G1 X134.68 Y122.26 E14.53579
G1 X135.20 Y122.41 E14.59988
G1 X135.39 Y122.49 E14.62464
G1 X135.89 Y122.70 E14.68938
G1 X136.07 Y122.80 E14.71421
G1 X136.53 Y123.07 E14.77866
G1 X136.70 Y123.20 E14.80392
G1 X137.07 Y123.47 E14.85841
G1 X137.23 Y123.62 E14.88458
G1 X137.62 Y124.00 E14.94994
G1 X137.91 Y124.35 E15.00454
G1 X138.06 Y124.53 E15.03316
G1 X138.37 Y125.02 E15.10224
G1 X138.48 Y125.20 E15.12763
G1 X138.68 Y125.61 E15.18181
G1 X138.77 Y125.80 E15.20617
G1 X138.92 Y126.27 E15.26605
G1 X138.99 Y126.45 E15.28946
G1 X139.10 Y126.97 E15.35273
G1 X139.15 Y127.18 E15.37793
G1 X139.18 Y127.68 E15.43819
G1 X139.22 Y128.02 E15.47954
G1 X138.99 Y129.78 E15.69190
G1 X138.93 Y130.27 E15.75100
G1 X138.25 Y131.91 E15.96369
G1 X138.06 Y132.37 E16.02298
G1 X136.97 Y133.78 E16.23665
G1 X136.67 Y134.17 E16.29553
G1 X136.28 Y134.47 E16.35383
G1 X134.86 Y135.56 E16.56854
G1 X134.41 Y135.75 E16.62646
G1 X132.75 Y136.43 E16.84122
G1 X132.26 Y136.50 E16.90131
G1 X130.71 Y136.70 E17.08783
G1 X99.30 Y136.70 E20.84785
G1 X99.02 Y136.66 E20.88151
G1 X97.25 Y136.43 E21.09521
G1 X96.79 Y136.24 E21.15420
G1 X95.14 Y135.56 E21.36891
G1 X94.75 Y135.26 E21.42781
G1 X93.33 Y134.17 E21.64158
G1 X92.24 Y132.75 E21.85519
G1 X91.94 Y132.37 E21.91373
G1 X91.26 Y130.72 E22.12646
G1 X91.07 Y130.26 E22.18624
G1 X90.84 Y128.49 E22.40043
G1 X90.80 Y128.22 E22.43293
G1 X90.80 Y96.79 E26.19522
G1 X91.01 Y95.22 E26.38478
G1 X91.08 Y94.73 E26.44375
G1 X91.75 Y93.09 E26.65655
G1 X91.95 Y92.63 E26.71573
G1 X93.03 Y91.22 E26.92934
G1 X93.33 Y90.83 E26.98831
G10
G0 F9000 X96.32 Y93.82
;TYPE:WALL-INNER
G11
G1 F1200 X97.25 Y93.11 E27.12872
G1 X98.33 Y92.66 E27.26890
G1 X99.56 Y92.50 E27.41730
G1 X130.44 Y92.50 E31.11304
G1 X131.66 Y92.66 E31.26095
G1 X132.75 Y93.11 E31.40139
G1 X133.68 Y93.82 E31.54183
G1 X134.39 Y94.75 E31.68252
G1 X134.84 Y95.84 E31.82287
G1 X135.00 Y97.03 E31.96690
G1 X134.99 Y97.19 E31.98647
G1 X134.94 Y97.41 E32.01224
G1 X134.88 Y97.60 E32.03696
G1 X134.78 Y97.80 E32.06320
G1 X134.66 Y97.99 E32.08993
G1 X134.53 Y98.15 E32.11485
G1 X134.37 Y98.30 E32.14126
G1 X134.21 Y98.43 E32.16650
G1 X134.02 Y98.53 E32.19175
G1 X133.82 Y98.62 E32.21776
G1 X133.64 Y98.67 E32.24008
G1 X132.22 Y98.81 E32.41112
G1 X132.27 Y98.77 E32.41881
G1 X132.58 Y98.37 E32.47976
G1 X132.67 Y98.25 E32.49772
G1 X132.86 Y97.79 E32.55654
G1 X132.92 Y97.65 E32.57510
G1 X132.99 Y97.15 E32.63571
G1 X133.01 Y97.01 E32.65253
G1 X132.94 Y96.49 E32.71483
G1 X132.92 Y96.34 E32.73310
G1 X132.73 Y95.89 E32.79245
G1 X132.67 Y95.74 E32.81075
G1 X132.37 Y95.36 E32.86905
G1 X132.27 Y95.22 E32.88923
G1 X132.14 Y95.13 E32.90910
G1 X131.75 Y94.82 E32.96816
G1 X131.61 Y94.77 E32.98510
G1 X131.14 Y94.58 E33.04670
G1 X130.97 Y94.56 E33.06645
G1 X130.51 Y94.50 E33.12211
G1 X130.36 Y94.51 E33.14017
G1 X129.86 Y94.58 E33.20066
G1 X129.72 Y94.63 E33.21866
G1 X129.26 Y94.83 E33.27893
G1 X129.13 Y94.92 E33.29700
G1 X128.73 Y95.23 E33.35844
G1 X128.42 Y95.63 E33.41904
G1 X128.33 Y95.75 E33.43750
G1 X128.14 Y96.21 E33.49611
G1 X128.08 Y96.35 E33.51456
G1 X128.02 Y96.83 E33.57300
G1 X127.99 Y96.99 E33.59237
G1 X128.06 Y97.51 E33.65468
G1 X128.08 Y97.66 E33.67248
G1 X128.27 Y98.11 E33.73185
G1 X128.33 Y98.26 E33.75030
G1 X128.63 Y98.64 E33.80877
G1 X128.73 Y98.78 E33.82895
G1 X128.87 Y98.88 E33.84882
G1 X129.17 Y99.11 E33.89534
G1 X114.88 Y100.53 E35.61496
G1 X114.78 Y100.54 E35.62645
G1 X113.45 Y100.75 E35.78796
G1 X113.33 Y100.79 E35.80335
G1 X112.02 Y101.16 E35.96535
G1 X111.91 Y101.21 E35.98076
G1 X110.66 Y101.74 E36.14230
G1 X110.55 Y101.80 E36.15758
G1 X109.38 Y102.48 E36.31922
G1 X109.28 Y102.55 E36.33471
G1 X108.20 Y103.37 E36.49715
G1 X108.11 Y103.46 E36.51221
G1 X107.14 Y104.40 E36.67407
G1 X106.29 Y105.45 E36.83517
G1 X106.21 Y105.55 E36.85091
G1 X105.50 Y106.70 E37.01265
G1 X105.43 Y106.81 E37.02829
G1 X104.87 Y108.04 E37.18924
G1 X104.81 Y108.16 E37.20515
G1 X104.41 Y109.44 E37.36649
G1 X104.36 Y109.57 E37.38235
G1 X104.12 Y110.89 E37.54345
G1 X104.09 Y111.02 E37.55942
G1 X104.01 Y112.36 E37.71999
G1 X104.00 Y112.49 E37.73620
G1 X104.08 Y113.85 E37.89929
G1 X104.09 Y113.98 E37.91454
G1 X104.12 Y114.10 E37.92926
G1 X104.36 Y115.43 E38.09086
G1 X104.40 Y115.55 E38.10626
G1 X104.81 Y116.84 E38.26829
G1 X104.87 Y116.96 E38.28371
G1 X105.43 Y118.19 E38.44525
G1 X105.50 Y118.29 E38.46057
G1 X106.21 Y119.45 E38.62273
G1 X106.29 Y119.55 E38.63814
G1 X107.14 Y120.60 E38.79949
G1 X107.23 Y120.69 E38.81489
G1 X108.20 Y121.63 E38.97751
G1 X108.30 Y121.71 E38.99223
G1 X109.38 Y122.52 E39.15390
G1 X110.55 Y123.20 E39.31570
G1 X110.66 Y123.26 E39.33157
G1 X110.78 Y123.31 E39.34649
G1 X112.03 Y123.84 E39.50879
G1 X112.15 Y123.88 E39.52372
G1 X113.45 Y124.25 E39.68592
G1 X113.57 Y124.27 E39.70080
G1 X114.87 Y124.47 E39.85843
G1 X129.17 Y125.89 E41.57864
G1 X129.14 Y125.92 E41.58429
G1 X128.73 Y126.23 E41.64575
G1 X128.42 Y126.63 E41.70661
G1 X128.33 Y126.75 E41.72490
G1 X128.14 Y127.21 E41.78352
G1 X128.08 Y127.35 E41.80197
G1 X128.02 Y127.83 E41.86041
G1 X127.99 Y127.99 E41.87978
G1 X128.06 Y128.51 E41.94209
G1 X128.08 Y128.66 E41.95988
G1 X128.27 Y129.11 E42.01926
G1 X128.33 Y129.26 E42.03771
G1 X128.63 Y129.64 E42.09617
G1 X128.73 Y129.78 E42.11636
G1 X128.87 Y129.88 E42.13623
G1 X129.26 Y130.18 E42.19512
G1 X129.38 Y130.23 E42.21184
G1 X129.86 Y130.43 E42.27377
G1 X130.03 Y130.44 E42.29352
G1 X130.49 Y130.50 E42.34895
G1 X130.64 Y130.49 E42.36712
G1 X131.14 Y130.42 E42.42773
G1 X131.28 Y130.37 E42.44584
G1 X131.74 Y130.17 E42.50604
G1 X131.86 Y130.09 E42.52369
G1 X132.27 Y129.77 E42.58541
G1 X132.58 Y129.37 E42.64637
G1 X132.67 Y129.25 E42.66432
G1 X132.86 Y128.79 E42.72314
G1 X132.92 Y128.65 E42.74170
G1 X132.99 Y128.15 E42.80231
G1 X133.01 Y128.01 E42.81914
G1 X132.94 Y127.49 E42.88143
G1 X132.92 Y127.34 E42.89970
G1 X132.73 Y126.89 E42.95905
G1 X132.67 Y126.75 E42.97724
G1 X132.37 Y126.36 E43.03580
G1 X132.27 Y126.22 E43.05591
G1 X132.23 Y126.19 E43.06242
G1 X133.65 Y126.33 E43.23334
G1 X133.82 Y126.38 E43.25429
G1 X134.02 Y126.47 E43.28110
G1 X134.20 Y126.57 E43.30635
G1 X134.38 Y126.70 E43.33278
G1 X134.53 Y126.84 E43.35674
G1 X134.67 Y127.02 E43.38344
G1 X134.78 Y127.20 E43.40921
G1 X134.87 Y127.39 E43.43443
G1 X134.94 Y127.60 E43.46164
G1 X134.99 Y127.81 E43.48655
G1 X135.00 Y127.97 E43.50671
G1 X134.84 Y129.16 E43.65036
G1 X134.40 Y130.25 E43.79027
G1 X133.68 Y131.18 E43.93095
G1 X132.75 Y131.89 E44.07129
G1 X131.66 Y132.34 E44.21179
G1 X130.44 Y132.50 E44.35993
G1 X99.56 Y132.50 E48.05579
G1 X98.34 Y132.34 E48.20356
G1 X97.25 Y131.89 E48.34417
G1 X96.32 Y131.18 E48.48461
G1 X95.61 Y130.25 E48.62521
G1 X95.16 Y129.16 E48.76588
G1 X95.00 Y127.94 E48.91340
G1 X95.00 Y97.06 E52.60938
G1 X95.16 Y95.84 E52.75692
G1 X95.61 Y94.75 E52.89747
G1 X96.32 Y93.82 E53.03799
G0 F9000 X97.73 Y95.23
G1 F1200 X97.42 Y95.63 E53.09858
G1 X97.33 Y95.75 E53.11704
G1 X97.14 Y96.21 E53.17566
G1 X97.08 Y96.35 E53.19411
G1 X97.02 Y96.83 E53.25255
G1 X96.99 Y96.99 E53.27192
G1 X97.06 Y97.51 E53.33423
G1 X97.08 Y97.66 E53.35202
G1 X97.27 Y98.11 E53.41139
G1 X97.33 Y98.26 E53.42985
G1 X97.63 Y98.64 E53.48831
G1 X97.73 Y98.78 E53.50849
G1 X97.86 Y98.88 E53.52837
G1 X98.25 Y99.18 E53.58726
G1 X98.39 Y99.23 E53.60398
G1 X98.86 Y99.42 E53.66591
G1 X99.03 Y99.44 E53.68566
G1 X99.49 Y99.50 E53.74108
G1 X99.64 Y99.49 E53.75926
G1 X100.14 Y99.42 E53.81987
G1 X100.28 Y99.37 E53.83798
G1 X100.74 Y99.17 E53.89818
G1 X100.86 Y99.09 E53.91583
G1 X101.27 Y98.77 E53.97755
G1 X101.58 Y98.37 E54.03850
G1 X101.67 Y98.25 E54.05646
G1 X101.86 Y97.79 E54.11528
G1 X101.92 Y97.65 E54.13384
G1 X101.99 Y97.15 E54.19445
G1 X102.01 Y97.01 E54.21127
G1 X101.94 Y96.49 E54.27357
G1 X101.92 Y96.34 E54.29184
G1 X101.73 Y95.89 E54.35119
G1 X101.67 Y95.74 E54.36949
G1 X101.37 Y95.36 E54.42779
G1 X101.27 Y95.22 E54.44797
G1 X101.14 Y95.13 E54.46784
G1 X100.75 Y94.82 E54.52690
G1 X100.61 Y94.77 E54.54384
G1 X100.14 Y94.58 E54.60544
G1 X99.97 Y94.56 E54.62519
G1 X99.51 Y94.50 E54.68085
G1 X99.36 Y94.51 E54.69891
G1 X98.86 Y94.58 E54.75940
G1 X98.72 Y94.63 E54.77740
G1 X98.26 Y94.83 E54.83767
G1 X98.14 Y94.92 E54.85574
G1 X97.73 Y95.23 E54.91718
G0 F9000 X97.47 Y97.55
G0 X99.51 Y125.50
G1 F1200 X99.36 Y125.51 E54.93524
G1 X98.86 Y125.58 E54.99572
G1 X98.72 Y125.63 E55.01373
G1 X98.26 Y125.83 E55.07399
G1 X98.14 Y125.92 E55.09197
G1 X97.73 Y126.23 E55.15343
G1 X97.42 Y126.63 E55.21429
G1 X97.33 Y126.75 E55.23258
G1 X97.14 Y127.21 E55.29120
G1 X97.08 Y127.35 E55.30965
G1 X97.02 Y127.83 E55.36809
G1 X96.99 Y127.99 E55.38746
G1 X97.06 Y128.51 E55.44977
G1 X97.08 Y128.66 E55.46756
G1 X97.27 Y129.11 E55.52694
G1 X97.33 Y129.26 E55.54539
G1 X97.63 Y129.64 E55.60385
G1 X97.73 Y129.78 E55.62404
G1 X97.86 Y129.88 E55.64391
G1 X98.25 Y130.18 E55.70280
G1 X98.39 Y130.23 E55.71952
G1 X98.86 Y130.43 E55.78145
G1 X99.03 Y130.44 E55.80120
G1 X99.49 Y130.50 E55.85663
G1 X99.64 Y130.49 E55.87480
G1 X100.14 Y130.42 E55.93541
G1 X100.28 Y130.37 E55.95352
G1 X100.74 Y130.17 E56.01372
G1 X100.86 Y130.09 E56.03137
G1 X101.27 Y129.77 E56.09309
G1 X101.58 Y129.37 E56.15405
G1 X101.67 Y129.25 E56.17200
G1 X101.86 Y128.79 E56.23082
G1 X101.92 Y128.65 E56.24938
G1 X101.99 Y128.15 E56.30999
G1 X102.01 Y128.01 E56.32682
G1 X101.94 Y127.49 E56.38911
G1 X101.92 Y127.34 E56.40738
G1 X101.73 Y126.89 E56.46673
G1 X101.67 Y126.75 E56.48492
G1 X101.37 Y126.36 E56.54348
G1 X101.27 Y126.22 E56.56359
G1 X101.14 Y126.12 E56.58346
G1 X100.74 Y125.82 E56.64262
G1 X100.61 Y125.77 E56.65967
G1 X100.14 Y125.58 E56.72100
G1 X99.97 Y125.56 E56.74075
G1 X99.51 Y125.50 E56.79641
G0 F9000 X99.51 Y125.90
G1 F1200 X99.41 Y125.91 E56.80821
G1 X98.96 Y125.97 E56.86231
G1 X98.87 Y126.00 E56.87398
G1 X98.45 Y126.18 E56.92802
G1 X98.38 Y126.23 E56.93966
G1 X98.01 Y126.51 E56.99436
G1 X97.74 Y126.87 E57.04864
G1 X97.68 Y126.95 E57.06061
G1 X97.51 Y127.36 E57.11354
G1 X97.47 Y127.45 E57.12561
G1 X97.41 Y127.90 E57.17959
G1 X97.40 Y128.00 E57.19097
G1 X97.46 Y128.45 E57.24616
G1 X97.47 Y128.55 E57.25777
G1 X97.64 Y128.96 E57.31123
G1 X97.68 Y129.05 E57.32319
G1 X97.95 Y129.41 E57.37706
G1 X98.02 Y129.49 E57.38920
G1 X98.09 Y129.55 E57.40033
G1 X98.45 Y129.82 E57.45513
G1 X98.54 Y129.86 E57.46605
G1 X98.96 Y130.04 E57.52116
G1 X99.06 Y130.05 E57.53332
G1 X99.49 Y130.10 E57.58499
G1 X99.59 Y130.09 E57.59678
G1 X100.04 Y130.03 E57.65100
G1 X100.13 Y130.00 E57.66267
G1 X100.55 Y129.82 E57.71665
G1 X100.62 Y129.77 E57.72821
G1 X100.99 Y129.49 E57.78311
G1 X101.26 Y129.13 E57.83741
G1 X101.32 Y129.05 E57.84921
G1 X101.49 Y128.64 E57.90260
G1 X101.53 Y128.55 E57.91430
G1 X101.59 Y128.11 E57.96704
G1 X101.60 Y128.01 E57.97951
G1 X101.54 Y127.55 E58.03468
G1 X101.53 Y127.45 E58.04653
G1 X101.36 Y127.04 E58.09993
G1 X101.32 Y126.95 E58.11189
G1 X101.05 Y126.59 E58.16552
G1 X100.99 Y126.51 E58.17782
G1 X100.91 Y126.45 E58.18912
G1 X100.55 Y126.18 E58.24395
G1 X100.46 Y126.14 E58.25475
G1 X100.04 Y125.97 E58.30975
G1 X99.94 Y125.95 E58.32191
G1 X99.51 Y125.90 E58.37370
G0 F9000 X94.60 Y127.96
G1 F1200 X94.60 Y97.04 E62.07458
G1 X94.77 Y95.74 E62.23202
G1 X95.26 Y94.55 E62.38578
G1 X96.04 Y93.54 E62.53834
G1 X97.05 Y92.76 E62.69106
G1 X98.23 Y92.27 E62.84455
G1 X99.54 Y92.10 E63.00225
G1 X130.46 Y92.10 E66.70385
G1 X130.49 Y92.10 E66.70735
G1 X131.77 Y92.27 E66.86166
G1 X132.95 Y92.76 E67.01429
G1 X133.96 Y93.54 E67.16727
G1 X134.74 Y94.55 E67.32026
G1 X135.23 Y95.73 E67.47338
G1 X135.40 Y97.01 E67.62730
G1 X135.40 Y97.02 E67.62875
G1 X135.38 Y97.25 E67.65600
G1 X135.33 Y97.50 E67.68713
G1 X135.25 Y97.76 E67.71957
G1 X135.14 Y97.99 E67.75014
G1 X134.99 Y98.22 E67.78259
G1 X134.82 Y98.42 E67.81398
G1 X134.64 Y98.60 E67.84538
G1 X134.43 Y98.76 E67.87643
G1 X134.20 Y98.89 E67.90840
G1 X133.96 Y98.99 E67.93897
G1 X133.72 Y99.06 E67.96950
G1 X114.93 Y100.93 E70.22980
G1 X114.84 Y100.94 E70.23986
G1 X113.53 Y101.14 E70.39844
G1 X113.43 Y101.17 E70.41098
G1 X112.16 Y101.54 E70.56999
G1 X112.06 Y101.58 E70.58233
G1 X110.84 Y102.10 E70.74109
G1 X110.75 Y102.15 E70.75348
G1 X109.60 Y102.81 E70.91222
G1 X109.52 Y102.87 E70.92462
G1 X108.46 Y103.68 E71.08390
G1 X108.39 Y103.75 E71.09617
G1 X107.43 Y104.67 E71.25506
G1 X106.60 Y105.70 E71.41334
G1 X106.54 Y105.79 E71.42611
G1 X105.78 Y107.00 E71.59758
G1 X105.23 Y108.20 E71.75580
G1 X105.19 Y108.30 E71.76860
G1 X104.79 Y109.56 E71.92710
G1 X104.75 Y109.67 E71.93993
G1 X104.51 Y110.97 E72.09822
G1 X104.49 Y111.07 E72.11101
G1 X104.41 Y112.40 E72.26992
G1 X104.40 Y112.50 E72.28204
G1 X104.48 Y113.83 E72.44165
G1 X104.49 Y113.93 E72.45414
G1 X104.51 Y114.03 E72.46606
G1 X104.75 Y115.33 E72.62486
G1 X104.78 Y115.43 E72.63728
G1 X105.19 Y116.70 E72.79628
G1 X105.78 Y118.00 E72.96734
G1 X105.84 Y118.08 E72.97980
G1 X106.54 Y119.22 E73.13885
G1 X106.60 Y119.30 E73.15136
G1 X107.43 Y120.33 E73.30981
G1 X107.51 Y120.40 E73.32234
G1 X108.46 Y121.33 E73.48165
G1 X108.54 Y121.39 E73.49371
G1 X109.60 Y122.19 E73.65249
G1 X110.75 Y122.85 E73.81129
G1 X110.84 Y122.91 E73.82400
G1 X110.93 Y122.94 E73.83618
G1 X112.16 Y123.47 E73.99526
G1 X112.26 Y123.49 E74.00754
G1 X113.53 Y123.86 E74.16652
G1 X113.63 Y123.87 E74.17873
G1 X114.92 Y124.07 E74.33504
G1 X133.72 Y125.94 E76.59618
G1 X133.96 Y126.01 E76.62535
G1 X134.19 Y126.11 E76.65592
G1 X134.43 Y126.24 E76.68820
G1 X134.64 Y126.40 E76.72035
G1 X134.82 Y126.58 E76.75108
G1 X134.99 Y126.78 E76.78255
G1 X135.13 Y127.00 E76.81413
G1 X135.25 Y127.25 E76.84615
G1 X135.33 Y127.50 E76.87791
G1 X135.38 Y127.75 E76.90903
G1 X135.40 Y127.99 E76.93689
G1 X135.23 Y129.26 E77.09130
G1 X134.74 Y130.45 E77.24506
G1 X133.96 Y131.46 E77.39769
G1 X132.95 Y132.24 E77.55041
G1 X131.77 Y132.73 E77.70351
G1 X130.46 Y132.90 E77.86166
G1 X99.54 Y132.90 E81.56326
G1 X99.51 Y132.90 E81.56677
G1 X98.23 Y132.73 E81.72094
G1 X97.05 Y132.24 E81.87361
G1 X96.04 Y131.46 E82.02669
G1 X95.26 Y130.45 E82.17970
G1 X94.77 Y129.27 E82.33271
G1 X94.60 Y127.99 E82.48664
G1 X94.60 Y127.96 E82.49076
G0 F9000 X98.96 Y99.03
G1 F1200 X99.06 Y99.05 E82.50292
