;FLAVOR:UltiGCode
;TIME:1657      
;MATERIAL:3973      
;MATERIAL2:0         

;Layer count: 15
;LAYER:0
M107
G0 F9000 X72.07 Y62.15 Z0.30
G0 X72.07 Y62.15
;TYPE:SKIRT
G11
G1 F1200 X72.32 Y61.89 E0.04320
G1 X72.45 Y61.74 E0.06726
G1 X72.60 Y61.61 E0.09081
G1 X72.86 Y61.37 E0.13333
G1 X73.14 Y61.14 E0.17601
G1 X73.23 Y61.07 E0.18988
G1 X82.57 Y54.22 E1.57643
G1 X82.57 Y54.22 E1.57660
G1 X84.78 Y52.60 E1.90411
G1 X85.58 Y52.06 E2.02014
G1 X85.86 Y51.88 E2.06015
G1 X86.18 Y51.70 E2.10328
G1 X87.07 Y51.20 E2.22540
G1 X87.99 Y50.78 E2.34687
G1 X87.99 Y50.78 E2.34699
G1 X88.31 Y50.63 E2.38935
G1 X89.26 Y50.28 E2.51061
G1 X89.59 Y50.16 E2.55329
G1 X90.59 Y49.87 E2.67766
G1 X90.93 Y49.78 E2.71908
G1 X91.26 Y49.71 E2.76019
G1 X92.27 Y49.51 E2.88320
G1 X93.29 Y49.39 E3.00604
G1 X93.64 Y49.35 E3.04788
G1 X94.00 Y49.34 E3.09136
G1 X95.01 Y49.30 E3.21199
G1 X96.03 Y49.34 E3.33465
G1 X96.38 Y49.35 E3.37669
G1 X96.73 Y49.39 E3.41840
G1 X97.75 Y49.51 E3.54126
G1 X98.75 Y49.71 E3.66401
G1 X99.10 Y49.78 E3.70648
G1 X99.44 Y49.88 E3.74842
G1 X99.44 Y49.88 E3.74854
G1 X100.41 Y50.15 E3.86942
G1 X100.74 Y50.27 E3.91081
G1 X101.70 Y50.63 E4.03359
G1 X102.01 Y50.77 E4.07516
G1 X102.96 Y51.21 E4.19930
G1 X103.83 Y51.70 E4.31992
G1 X104.15 Y51.87 E4.36343
G1 X104.44 Y52.07 E4.40500
G1 X105.24 Y52.60 E4.52063
G1 X116.77 Y61.06 E6.23112
G1 X116.86 Y61.13 E6.24544
G1 X117.16 Y61.36 E6.29027
G1 X117.42 Y61.61 E6.33347
G1 X117.57 Y61.74 E6.35753
G1 X117.70 Y61.89 E6.38091
G1 X117.94 Y62.15 E6.42360
G1 X118.15 Y62.41 E6.46415
G1 X118.32 Y62.62 E6.49565
G1 X118.42 Y62.77 E6.51787
G1 X118.61 Y63.06 E6.55917
G1 X118.78 Y63.37 E6.60188
G1 X118.78 Y63.37 E6.60200
G1 X118.88 Y63.55 E6.62596
G1 X119.02 Y63.85 E6.66629
G1 X119.12 Y64.05 E6.69279
G1 X119.19 Y64.27 E6.72077
G1 X119.31 Y64.59 E6.76126
G1 X119.41 Y64.93 E6.80290
G1 X119.46 Y65.09 E6.82331
G1 X119.52 Y65.43 E6.86503
G1 X119.57 Y65.66 E6.89245
G1 X119.61 Y65.99 E6.93245
G1 X119.64 Y66.21 E6.95926
G1 X119.65 Y66.44 E6.98670
G1 X119.66 Y66.81 E7.03065
G1 X119.65 Y67.14 E7.07055
G1 X119.64 Y67.32 E7.09234
G1 X119.62 Y67.56 E7.12090
G1 X119.58 Y67.89 E7.16059
G1 X119.54 Y68.08 E7.18428
G1 X119.46 Y68.45 E7.22964
G1 X119.42 Y68.63 E7.25107
G1 X119.31 Y69.00 E7.29809
G1 X119.19 Y69.34 E7.34141
G1 X119.11 Y69.55 E7.36712
G1 X119.01 Y69.75 E7.39485
G1 X118.90 Y70.00 E7.42774
G1 X118.81 Y70.17 E7.45044
G1 X118.61 Y70.53 E7.49997
G1 X118.41 Y70.83 E7.54213
G1 X118.30 Y71.00 E7.56737
G1 X118.15 Y71.18 E7.59500
G1 X117.95 Y71.44 E7.63480
G1 X117.70 Y71.71 E7.67800
G1 X117.57 Y71.86 E7.70206
G1 X117.42 Y71.99 E7.72561
G1 X117.16 Y72.23 E7.76814
G1 X116.88 Y72.45 E7.81081
G1 X116.79 Y72.52 E7.82468
G1 X107.45 Y79.37 E9.21123
G1 X107.45 Y79.37 E9.21140
G1 X105.24 Y80.99 E9.53891
G1 X104.44 Y81.53 E9.65494
G1 X104.16 Y81.72 E9.69495
G1 X103.84 Y81.89 E9.73808
G1 X102.95 Y82.39 E9.86020
G1 X102.03 Y82.81 E9.98167
G1 X102.03 Y82.82 E9.98179
G1 X101.71 Y82.97 E10.02415
G1 X100.76 Y83.31 E10.14541
G1 X100.43 Y83.44 E10.18809
G1 X99.43 Y83.72 E10.31246
G1 X99.09 Y83.81 E10.35388
G1 X98.76 Y83.88 E10.39499
G1 X97.75 Y84.08 E10.51800
G1 X96.73 Y84.20 E10.64084
G1 X96.38 Y84.25 E10.68268
G1 X96.02 Y84.26 E10.72616
G1 X95.01 Y84.30 E10.84679
G1 X93.99 Y84.26 E10.96945
G1 X93.64 Y84.25 E11.01149
G1 X93.29 Y84.20 E11.05320
G1 X92.27 Y84.08 E11.17606
G1 X91.27 Y83.88 E11.29881
G1 X90.92 Y83.81 E11.34128
G1 X90.58 Y83.72 E11.38322
G1 X90.58 Y83.72 E11.38334
G1 X89.61 Y83.44 E11.50422
G1 X89.28 Y83.32 E11.54561
G1 X88.32 Y82.97 E11.66839
G1 X88.01 Y82.82 E11.70996
G1 X87.06 Y82.39 E11.83410
G1 X86.18 Y81.89 E11.95596
G1 X85.87 Y81.72 E11.99823
G1 X85.57 Y81.52 E12.04169
G1 X84.78 Y80.99 E12.15543
G1 X73.25 Y72.54 E13.86592
G1 X73.16 Y72.47 E13.88024
G1 X72.86 Y72.23 E13.92507
G1 X72.60 Y71.99 E13.96827
G1 X72.45 Y71.85 E13.99233
G1 X72.32 Y71.71 E14.01588
G1 X72.08 Y71.45 E14.05840
G1 X71.86 Y71.17 E14.10108
G1 X71.70 Y70.98 E14.13045
G1 X71.61 Y70.83 E14.15104
G1 X71.60 Y70.82 E14.15267
G1 X71.41 Y70.53 E14.19397
G1 X71.24 Y70.22 E14.23669
G1 X71.24 Y70.22 E14.23681
G1 X71.14 Y70.05 E14.26077
G1 X71.00 Y69.74 E14.30110
G1 X70.90 Y69.54 E14.32760
G1 X70.83 Y69.32 E14.35557
G1 X70.71 Y69.00 E14.39606
G1 X70.61 Y68.67 E14.43771
G1 X70.56 Y68.50 E14.45812
G1 X70.50 Y68.16 E14.49983
G1 X70.45 Y67.94 E14.52725
G1 X70.41 Y67.61 E14.56725
G1 X70.38 Y67.39 E14.59407
G1 X70.37 Y67.16 E14.62150
G1 X70.36 Y66.79 E14.66546
G1 X70.37 Y66.46 E14.70535
G1 X70.38 Y66.27 E14.72714
G1 X70.40 Y66.04 E14.75571
G1 X70.44 Y65.71 E14.79539
G1 X70.48 Y65.51 E14.81909
G1 X70.56 Y65.14 E14.86444
G1 X70.60 Y64.97 E14.88587
G1 X70.71 Y64.59 E14.93290
G1 X70.83 Y64.25 E14.97622
G1 X70.91 Y64.05 E15.00193
G1 X71.01 Y63.84 E15.02966
G1 X71.12 Y63.59 E15.06254
G1 X71.21 Y63.42 E15.08524
G1 X71.41 Y63.06 E15.13477
G1 X71.61 Y62.77 E15.17693
G1 X71.72 Y62.59 E15.20217
G1 X71.88 Y62.40 E15.23134
G1 X72.07 Y62.15 E15.26960
G0 F9000 X72.38 Y62.41
G1 F1200 X72.61 Y62.16 E15.31111
G1 X72.74 Y62.02 E15.33305
G1 X72.87 Y61.90 E15.35457
G1 X73.12 Y61.67 E15.39557
G1 X73.38 Y61.47 E15.43459
G1 X73.47 Y61.39 E15.44948
G1 X82.81 Y54.54 E16.83500
G1 X85.00 Y52.93 E17.16134
G1 X85.78 Y52.41 E17.27349
G1 X86.07 Y52.22 E17.31469
G1 X86.37 Y52.05 E17.35579
G1 X87.25 Y51.56 E17.47608
G1 X88.16 Y51.14 E17.59583
G1 X88.16 Y51.14 E17.59595
G1 X88.46 Y51.00 E17.63633
G1 X89.42 Y50.65 E17.75850
G1 X89.72 Y50.53 E17.79661
G1 X90.69 Y50.26 E17.91784
G1 X91.02 Y50.17 E17.95853
G1 X91.34 Y50.10 E17.99781
G1 X92.33 Y49.91 E18.11887
G1 X93.34 Y49.79 E18.23990
G1 X93.34 Y49.79 E18.24002
G1 X93.67 Y49.75 E18.27994
G1 X94.00 Y49.73 E18.31971
G1 X95.01 Y49.70 E18.44033
G1 X96.02 Y49.73 E18.56119
G1 X96.35 Y49.75 E18.60120
G1 X96.68 Y49.79 E18.64111
G1 X97.69 Y49.91 E18.76215
G1 X98.68 Y50.10 E18.88295
G1 X99.01 Y50.17 E18.92347
G1 X99.33 Y50.26 E18.96355
G1 X99.33 Y50.26 E18.96367
G1 X100.29 Y50.53 E19.08281
G1 X100.60 Y50.65 E19.12242
G1 X101.55 Y51.00 E19.24342
G1 X101.85 Y51.13 E19.28296
G1 X102.77 Y51.56 E19.40512
G1 X103.65 Y52.05 E19.52580
G1 X103.94 Y52.21 E19.56561
G1 X104.22 Y52.40 E19.60518
G1 X105.02 Y52.93 E19.71979
G1 X116.53 Y61.37 E21.42855
G1 X116.61 Y61.44 E21.44187
G1 X116.90 Y61.66 E21.48481
G1 X117.15 Y61.90 E21.52631
G1 X117.29 Y62.02 E21.54826
G1 X117.41 Y62.16 E21.56977
G1 X117.64 Y62.41 E21.61077
G1 X117.84 Y62.66 E21.64979
G1 X117.99 Y62.85 E21.67856
G1 X118.10 Y63.02 E21.70211
G1 X118.27 Y63.27 E21.73873
G1 X118.43 Y63.57 E21.77914
G1 X118.52 Y63.73 E21.80165
G1 X118.66 Y64.03 E21.84080
G1 X118.75 Y64.21 E21.86467
G1 X118.82 Y64.40 E21.88973
G1 X118.93 Y64.71 E21.92931
G1 X119.02 Y65.04 E21.96945
G1 X119.07 Y65.19 E21.98823
G1 X119.14 Y65.56 E22.03314
G1 X119.18 Y65.72 E22.05335
G1 X119.22 Y66.08 E22.09721
G1 X119.24 Y66.24 E22.11654
G1 X119.25 Y66.45 E22.14158
G1 X119.26 Y66.80 E22.18362
G1 X119.25 Y67.12 E22.22112
G1 X119.25 Y67.29 E22.24219
G1 X119.22 Y67.51 E22.26833
G1 X119.18 Y67.83 E22.30656
G1 X119.15 Y68.01 E22.32833
G1 X119.08 Y68.36 E22.37160
G1 X119.03 Y68.52 E22.39143
G1 X118.93 Y68.88 E22.43622
G1 X118.81 Y69.21 E22.47776
G1 X118.75 Y69.39 E22.50131
G1 X118.65 Y69.58 E22.52663
G1 X118.54 Y69.83 E22.55887
G1 X118.46 Y69.98 E22.57980
G1 X118.27 Y70.32 E22.62681
G1 X118.09 Y70.59 E22.66472
G1 X117.98 Y70.77 E22.69039
G1 X117.82 Y70.96 E22.72016
G1 X117.64 Y71.18 E22.75407
G1 X117.41 Y71.44 E22.79558
G1 X117.28 Y71.57 E22.81752
G1 X117.15 Y71.69 E22.83903
G1 X116.90 Y71.93 E22.88003
G1 X116.64 Y72.13 E22.91905
G1 X116.55 Y72.21 E22.93395
G1 X107.21 Y79.05 E24.31946
G1 X105.02 Y80.67 E24.64580
G1 X104.24 Y81.18 E24.75795
G1 X103.95 Y81.38 E24.79915
G1 X103.65 Y81.54 E24.84025
G1 X102.77 Y82.03 E24.96055
G1 X101.86 Y82.45 E25.08030
G1 X101.86 Y82.45 E25.08042
G1 X101.56 Y82.60 E25.12080
G1 X100.60 Y82.95 E25.24297
G1 X100.30 Y83.06 E25.28107
G1 X99.33 Y83.33 E25.40230
G1 X99.00 Y83.43 E25.44300
G1 X98.68 Y83.49 E25.48227
G1 X97.69 Y83.69 E25.60333
G1 X96.68 Y83.81 E25.72437
G1 X96.68 Y83.81 E25.72448
G1 X96.35 Y83.85 E25.76441
G1 X96.02 Y83.86 E25.80417
G1 X95.01 Y83.90 E25.92480
G1 X94.00 Y83.86 E26.04566
G1 X93.67 Y83.85 E26.08567
G1 X93.34 Y83.81 E26.12558
G1 X92.33 Y83.69 E26.24661
G1 X91.34 Y83.49 E26.36741
G1 X91.01 Y83.42 E26.40793
G1 X90.69 Y83.33 E26.44802
G1 X90.69 Y83.33 E26.44814
G1 X89.73 Y83.06 E26.56728
G1 X89.42 Y82.95 E26.60688
G1 X88.47 Y82.60 E26.72789
G1 X88.17 Y82.46 E26.76743
G1 X87.25 Y82.03 E26.88958
G1 X86.37 Y81.54 E27.01027
G1 X86.08 Y81.38 E27.05007
G1 X85.79 Y81.19 E27.09137
G1 X85.00 Y80.66 E27.20425
G1 X73.49 Y72.22 E28.91302
G1 X73.41 Y72.15 E28.92633
G1 X73.13 Y71.93 E28.96927
G1 X72.87 Y71.69 E29.01078
G1 X72.73 Y71.57 E29.03272
G1 X72.61 Y71.44 E29.05424
G1 X72.38 Y71.19 E29.09524
G1 X72.17 Y70.92 E29.13621
G1 X72.03 Y70.74 E29.16302
G1 X71.91 Y70.56 E29.18943
G1 X71.75 Y70.32 E29.22319
G1 X71.59 Y70.02 E29.26414
G1 X71.50 Y69.86 E29.28611
G1 X71.36 Y69.57 E29.32526
G1 X71.27 Y69.39 E29.34914
G1 X71.20 Y69.19 E29.37435
G1 X71.09 Y68.88 E29.41377
G1 X70.99 Y68.54 E29.45641
G1 X70.95 Y68.41 E29.47269
G1 X70.88 Y68.03 E29.51919
G1 X70.84 Y67.87 E29.53781
G1 X70.80 Y67.49 E29.58372
G1 X70.78 Y67.35 E29.60100
G1 X70.77 Y67.14 E29.62604
G1 X70.76 Y66.79 E29.66808
G1 X70.77 Y66.47 E29.70677
G1 X70.78 Y66.30 E29.72665
G1 X70.80 Y66.08 E29.75279
G1 X70.84 Y65.77 E29.79102
G1 X70.87 Y65.59 E29.81279
G1 X70.94 Y65.23 E29.85606
G1 X70.99 Y65.07 E29.87589
G1 X71.09 Y64.71 E29.92068
G1 X71.21 Y64.39 E29.96222
G1 X71.28 Y64.20 E29.98577
G1 X71.37 Y64.01 E30.01109
G1 X71.48 Y63.77 E30.04333
G1 X71.56 Y63.61 E30.06427
G1 X71.75 Y63.27 E30.11127
G1 X71.93 Y63.01 E30.14918
G1 X72.04 Y62.83 E30.17485
G1 X72.20 Y62.63 E30.20462
G1 X72.38 Y62.41 E30.23853
G10
G0 F9000 X75.57 Y65.14
;TYPE:WALL-INNER
G11
G1 F1200 X75.71 Y64.99 E30.26326
G1 X75.85 Y64.86 E30.28571
G1 X76.00 Y64.73 E30.30964
G1 X76.03 Y64.72 E30.31271
G1 X87.42 Y56.36 E32.00393
G1 X88.13 Y55.89 E32.10658
G1 X88.27 Y55.79 E32.12693
G1 X88.41 Y55.72 E32.14568
G1 X89.16 Y55.30 E32.24792
G1 X89.92 Y54.95 E32.34925
G1 X90.07 Y54.88 E32.36810
G1 X90.87 Y54.58 E32.47050
G1 X91.03 Y54.52 E32.49069
G1 X91.84 Y54.30 E32.59156
G1 X91.99 Y54.25 E32.61070
G1 X92.16 Y54.22 E32.63084
G1 X92.99 Y54.05 E32.73275
G1 X93.84 Y53.95 E32.83448
G1 X94.01 Y53.93 E32.85510
G1 X94.16 Y53.93 E32.87331
G1 X95.01 Y53.90 E32.97525
G1 X95.86 Y53.93 E33.07647
G1 X96.02 Y53.93 E33.09599
G1 X96.18 Y53.95 E33.11577
G1 X97.03 Y54.06 E33.21801
G1 X97.86 Y54.22 E33.31904
G1 X98.02 Y54.25 E33.33869
G1 X98.18 Y54.30 E33.35847
G1 X98.99 Y54.52 E33.45885
G1 X99.15 Y54.59 E33.48024
G1 X99.95 Y54.88 E33.58155
G1 X100.10 Y54.95 E33.60089
G1 X100.88 Y55.31 E33.70377
G1 X101.61 Y55.72 E33.80457
G1 X101.74 Y55.79 E33.82279
G1 X101.89 Y55.89 E33.84340
G1 X102.61 Y56.37 E33.94689
G1 X114.01 Y64.73 E35.63930
G1 X114.02 Y64.74 E35.64117
G1 X114.17 Y64.86 E35.66418
G1 X114.32 Y65.00 E35.68883
G1 X114.45 Y65.14 E35.71128
G1 X114.57 Y65.28 E35.73418
G1 X114.57 Y65.29 E35.73541
G1 X114.69 Y65.47 E35.75995
G1 X114.78 Y65.63 E35.78268
G1 X114.78 Y65.64 E35.78391
G1 X114.87 Y65.82 E35.80748
G1 X114.94 Y66.00 E35.83138
G1 X114.99 Y66.20 E35.85548
G1 X114.99 Y66.21 E35.85711
G1 X115.03 Y66.39 E35.87908
G1 X115.03 Y66.41 E35.88080
G1 X115.05 Y66.59 E35.90297
G1 X115.06 Y66.61 E35.90490
G1 X115.06 Y66.79 E35.92706
G1 X115.05 Y66.99 E35.95126
G1 X115.05 Y67.01 E35.95329
G1 X115.03 Y67.19 E35.97549
G1 X115.03 Y67.20 E35.97669
G1 X114.99 Y67.38 E35.99857
G1 X114.98 Y67.42 E36.00290
G1 X114.94 Y67.58 E36.02366
G1 X114.87 Y67.77 E36.04673
G1 X114.87 Y67.78 E36.04802
G1 X114.78 Y67.97 E36.07356
G1 X114.69 Y68.13 E36.09559
G1 X114.58 Y68.30 E36.11963
G1 X114.45 Y68.45 E36.14348
G1 X114.31 Y68.61 E36.16855
G1 X114.17 Y68.73 E36.19100
G1 X114.02 Y68.86 E36.21493
G1 X114.00 Y68.88 E36.21800
G1 X102.60 Y77.23 E37.90922
G1 X101.89 Y77.71 E38.01187
G1 X101.75 Y77.80 E38.03222
G1 X101.61 Y77.88 E38.05097
G1 X100.86 Y78.29 E38.15321
G1 X100.10 Y78.65 E38.25454
G1 X99.95 Y78.72 E38.27339
G1 X99.15 Y79.01 E38.37579
G1 X98.99 Y79.07 E38.39598
G1 X98.18 Y79.30 E38.49685
G1 X98.03 Y79.34 E38.51599
G1 X97.86 Y79.37 E38.53613
G1 X97.03 Y79.54 E38.63804
G1 X96.18 Y79.64 E38.73977
G1 X96.01 Y79.66 E38.76039
G1 X95.86 Y79.67 E38.77860
G1 X95.01 Y79.70 E38.88054
G1 X94.16 Y79.67 E38.98176
G1 X94.00 Y79.66 E39.00128
G1 X93.84 Y79.64 E39.02106
G1 X92.99 Y79.54 E39.12330
G1 X92.16 Y79.38 E39.22433
G1 X92.00 Y79.34 E39.24398
G1 X91.84 Y79.30 E39.26376
G1 X91.03 Y79.07 E39.36414
G1 X90.87 Y79.01 E39.38553
G1 X90.07 Y78.72 E39.48684
G1 X89.92 Y78.65 E39.50618
G1 X89.14 Y78.29 E39.60906
G1 X88.41 Y77.88 E39.70986
G1 X88.28 Y77.80 E39.72808
G1 X88.13 Y77.71 E39.74869
G1 X87.42 Y77.23 E39.85218
G1 X76.01 Y68.86 E41.54459
G1 X76.00 Y68.86 E41.54646
G1 X75.85 Y68.74 E41.56947
G1 X75.70 Y68.60 E41.59412
G1 X75.57 Y68.46 E41.61657
G1 X75.45 Y68.31 E41.63947
G1 X75.45 Y68.30 E41.64070
G1 X75.33 Y68.13 E41.66524
G1 X75.24 Y67.96 E41.68797
G1 X75.24 Y67.95 E41.68920
G1 X75.15 Y67.78 E41.71277
G1 X75.08 Y67.59 E41.73667
G1 X75.03 Y67.39 E41.76077
G1 X75.03 Y67.38 E41.76240
G1 X74.99 Y67.20 E41.78437
G1 X74.99 Y67.19 E41.78609
G1 X74.97 Y67.00 E41.80826
G1 X74.96 Y66.98 E41.81054
G1 X74.96 Y66.80 E41.83234
G1 X74.97 Y66.60 E41.85655
G1 X74.97 Y66.58 E41.85906
G1 X74.99 Y66.39 E41.88175
G1 X75.00 Y66.36 E41.88515
G1 X75.03 Y66.21 E41.90386
G1 X75.04 Y66.18 E41.90819
G1 X75.08 Y66.01 E41.92895
G1 X75.15 Y65.83 E41.95202
G1 X75.15 Y65.82 E41.95330
G1 X75.24 Y65.63 E41.97885
G1 X75.33 Y65.47 E42.00088
G1 X75.44 Y65.30 E42.02492
G1 X75.57 Y65.14 E42.04911
G0 F9000 X75.61 Y65.17
G1 F1200 X75.49 Y65.33 E42.07305
G1 X75.38 Y65.49 E42.09619
G1 X75.29 Y65.66 E42.11950
G1 X75.20 Y65.84 E42.14301
G1 X75.14 Y66.03 E42.16649
G1 X75.08 Y66.21 E42.18999
G1 X75.04 Y66.41 E42.21353
G1 X75.02 Y66.60 E42.23668
G1 X75.01 Y66.79 E42.26005
G1 X75.02 Y66.98 E42.28281
G1 X75.04 Y67.17 E42.30583
G1 X75.08 Y67.36 E42.32886
G1 X75.13 Y67.56 E42.35282
G1 X75.20 Y67.74 E42.37641
G1 X75.28 Y67.92 E42.39956
G1 X75.37 Y68.09 E42.42297
G1 X75.48 Y68.25 E42.44631
G1 X75.60 Y68.41 E42.47002
G1 X75.73 Y68.55 E42.49332
G1 X75.88 Y68.69 E42.51669
G1 X76.03 Y68.81 E42.54070
G1 X76.20 Y68.92 E42.56410
G1 X76.36 Y69.02 E42.58743
G1 X76.54 Y69.10 E42.61073
G1 X76.72 Y69.17 E42.63418
G1 X76.92 Y69.22 E42.65782
G1 X77.10 Y69.26 E42.68081
G1 X77.30 Y69.28 E42.70458
G1 X77.49 Y69.29 E42.72770
G1 X77.69 Y69.29 E42.75154
G1 X77.89 Y69.27 E42.77528
G1 X78.08 Y69.23 E42.79831
G1 X78.27 Y69.18 E42.82250
G1 X78.45 Y69.11 E42.84575
G1 X78.63 Y69.03 E42.86884
G1 X78.80 Y68.93 E42.89242
G1 X78.97 Y68.83 E42.91576
G1 X79.12 Y68.70 E42.93947
G1 X79.27 Y68.57 E42.96277
G1 X79.40 Y68.43 E42.98614
G1 X79.53 Y68.27 E43.01015
G1 X79.63 Y68.11 E43.03355
G1 X79.73 Y67.94 E43.05671
G1 X79.81 Y67.77 E43.07996
G1 X79.88 Y67.58 E43.10379
G1 X79.94 Y67.39 E43.12728
G1 X79.97 Y67.20 E43.15027
G1 X80.00 Y67.00 E43.17453
G1 X80.00 Y66.87 E43.19033
G1 X80.01 Y66.81 E43.19825
G1 X80.00 Y66.60 E43.22244
G1 X79.98 Y66.41 E43.24608
G1 X79.94 Y66.21 E43.26962
G1 X79.89 Y66.03 E43.29312
G1 X79.82 Y65.84 E43.31660
G1 X79.73 Y65.66 E43.34011
G1 X79.64 Y65.49 E43.36342
G1 X79.53 Y65.33 E43.38656
G1 X79.41 Y65.17 E43.41051
G1 X79.28 Y65.03 E43.43388
G1 X79.13 Y64.90 E43.45726
G1 X78.98 Y64.78 E43.48121
G1 X78.81 Y64.67 E43.50435
G1 X78.64 Y64.57 E43.52782
G1 X78.47 Y64.49 E43.55128
G1 X78.28 Y64.42 E43.57449
G1 X78.09 Y64.37 E43.59814
G1 X77.90 Y64.33 E43.62168
G1 X77.71 Y64.31 E43.64495
G1 X77.51 Y64.30 E43.66867
G1 X77.31 Y64.31 E43.69240
G1 X77.12 Y64.33 E43.71555
G1 X76.93 Y64.37 E43.73909
G1 X76.74 Y64.42 E43.76274
G1 X76.56 Y64.49 E43.78595
G1 X76.38 Y64.57 E43.80941
G1 X76.21 Y64.67 E43.83288
G1 X76.05 Y64.78 E43.85602
G1 X75.89 Y64.90 E43.87997
G1 X75.75 Y65.03 E43.90335
G1 X75.61 Y65.17 E43.92672
G0 F9000 X78.00 Y64.76
G0 X87.04 Y66.17
G1 F1200 X87.03 Y66.26 E43.93642
G1 X87.01 Y66.80 E44.00112
G1 X87.03 Y67.36 E44.06808
G1 X87.04 Y67.43 E44.07719
G1 X87.10 Y67.98 E44.14336
G1 X87.11 Y68.06 E44.15242
G1 X87.22 Y68.60 E44.21879
G1 X87.24 Y68.67 E44.22811
G1 X87.38 Y69.19 E44.29227
G1 X87.40 Y69.27 E44.30159
